<?xml version="1.0"?>
<VTKFile type="StructuredGrid" version="0.1" byte_order="LittleEndian">
  <StructuredGrid WholeExtent="0 1 0 1 0 1">
    <Piece Extent="0 1 0 1 0 1">
      <Points>
        <DataArray type="Float32" NumberOfComponents="3" format="ascii">
          0 0 0 1 0 0 0 1 0 1 1 0 0 0 1 1 0 1 0 1 1 1 1 1
        </DataArray>
      </Points>
      <PointData>
        <DataArray type="Float32" Name="scalars" NumberOfComponents="1" format="ascii">
          0 0.5 0.5 1 0.5 0.5 1 1
        </DataArray>
      </PointData>
    </Piece>
  </StructuredGrid>
</VTKFile>
